lib/brands/icons/american-express.svg

<svg xmlns="http://www.w3.org/2000/svg" fill="none" aria-hidden="true" viewBox="0 0 48 48"><g id="american-express-Icon"><g id="Group"><path id="path3078" fill="#016FD0" d="M2 2H46V25.7525L43.8221 29.1555L46 32.1841V46H2V23.6087L3.36118 22.0433L2 20.546V2Z"/><path id="path3082" fill="white" d="M10.5415 32.6605V25.7525H17.8558L18.6405 26.7755L19.4512 25.7525H46.0001V32.1841C46.0001 32.1841 45.3058 32.6536 44.5028 32.6605H29.8021L28.9174 31.5715V32.6605H26.0181V30.8016C26.0181 30.8016 25.622 31.0611 24.7658 31.0611H23.7789V32.6605H19.3891L18.6055 31.6155L17.8099 32.6605H10.5415Z"/><path id="path3080" fill="white" d="M2 20.546L3.64939 16.7007H6.50185L7.4379 18.8547V16.7007H10.9838L11.541 18.2575L12.0812 16.7007H27.9985V17.4834C27.9985 17.4834 28.8352 16.7007 30.2104 16.7007L35.3749 16.7187L36.2948 18.8445V16.7007H39.2622L40.0789 17.9218V16.7007H43.0735V23.6086H40.0789L39.2962 22.3836V23.6086H34.9365L34.4981 22.5197H33.326L32.8947 23.6086H29.9381C28.7548 23.6086 27.9985 22.842 27.9985 22.842V23.6086H23.5406L22.6558 22.5197V23.6086H6.07927L5.64114 22.5197H4.47284L4.03781 23.6086H2V20.546Z"/><path id="path3046" fill="#016FD0" d="M4.23297 17.5522L2.0083 22.7247H3.45668L3.86716 21.6889H6.25347L6.66182 22.7247H8.1421L5.91955 17.5522H4.23297ZM5.05606 18.756L5.78344 20.5659H4.32655L5.05606 18.756V18.756Z"/><path id="path3048" fill="#016FD0" d="M8.29541 22.7239V17.5514L10.3536 17.559L11.5508 20.8939L12.7192 17.5514H14.761V22.7239H13.4679V18.9126L12.0971 22.7239H10.9631L9.58853 18.9126V22.7239H8.29541Z"/><path id="path3050" fill="#016FD0" d="M15.646 22.7239V17.5514H19.8656V18.7084H16.9527V19.5932H19.7976V20.6821H16.9527V21.6009H19.8656V22.7239H15.646Z"/><path id="path3052" fill="#016FD0" d="M20.6138 17.5522V22.7247H21.9069V20.8871H22.4514L24.0018 22.7247H25.5821L23.8806 20.819C24.5789 20.7601 25.2992 20.1608 25.2992 19.2303C25.2992 18.1418 24.4449 17.5522 23.4914 17.5522H20.6138V17.5522ZM21.9069 18.7092H23.385C23.7396 18.7092 23.9976 18.9866 23.9976 19.2537C23.9976 19.5973 23.6634 19.7981 23.4042 19.7981H21.9069V18.7092V18.7092Z"/><path id="path3054" fill="#016FD0" d="M27.148 22.7239H25.8276V17.5514H27.148V22.7239Z"/><path id="path3056" fill="#016FD0" d="M30.2785 22.7239H29.9935C28.6146 22.7239 27.7773 21.6375 27.7773 20.1589C27.7773 18.6438 28.6052 17.5514 30.3466 17.5514H31.7758V18.7764H30.2943C29.5874 18.7764 29.0875 19.3281 29.0875 20.1717C29.0875 21.1734 29.6591 21.5941 30.4827 21.5941H30.823L30.2785 22.7239Z"/><path id="path3058" fill="#016FD0" d="M33.0923 17.5522L30.8677 22.7247H32.3161L32.7265 21.6889H35.1128L35.5212 22.7247H37.0015L34.7789 17.5522H33.0923ZM33.9154 18.756L34.6428 20.5659H33.1859L33.9154 18.756Z"/><path id="path3060" fill="#016FD0" d="M37.1523 22.7239V17.5514H38.7964L40.8956 20.8012V17.5514H42.1887V22.7239H40.5978L38.4455 19.389V22.7239H37.1523Z"/><path id="path3062" fill="#016FD0" d="M11.4268 31.7756V26.6031H15.6464V27.7602H12.7335V28.6449H15.5783V29.7339H12.7335V30.6526H15.6464V31.7756H11.4268Z"/><path id="path3064" fill="#016FD0" d="M32.1021 31.7756V26.6031H36.3217V27.7602H33.4088V28.6449H36.24V29.7339H33.4088V30.6526H36.3217V31.7756H32.1021Z"/><path id="path3066" fill="#016FD0" d="M15.8101 31.7756L17.8647 29.2213L15.7612 26.6031H17.3904L18.6431 28.2217L19.9001 26.6031H21.4654L19.3896 29.1894L21.4479 31.7756H19.819L18.6027 30.1826L17.4159 31.7756H15.8101Z"/><path id="path3068" fill="#016FD0" d="M21.6006 26.6041V31.7765H22.9277V30.1431H24.2889C25.4407 30.1431 26.3137 29.5321 26.3137 28.3438C26.3137 27.3595 25.629 26.6041 24.4569 26.6041H21.6006V26.6041ZM22.9277 27.7738H24.3612C24.7333 27.7738 24.9993 28.0019 24.9993 28.3693C24.9993 28.7146 24.7346 28.9649 24.357 28.9649H22.9277V27.7738Z"/><path id="path3072" fill="#016FD0" d="M26.8755 26.6031V31.7756H28.1686V29.938H28.7131L30.2635 31.7756H31.8438L30.1423 29.87C30.8406 29.811 31.5609 29.2117 31.5609 28.2812C31.5609 27.1928 30.7066 26.6031 29.7531 26.6031H26.8755V26.6031ZM28.1686 27.7602H29.6468C30.0013 27.7602 30.2593 28.0375 30.2593 28.3046C30.2593 28.6483 29.9251 28.8491 29.6659 28.8491H28.1686V27.7602V27.7602Z"/><path id="path3074" fill="#016FD0" d="M36.921 31.7756V30.6526H39.509C39.8919 30.6526 40.0577 30.4457 40.0577 30.2188C40.0577 30.0013 39.8924 29.7815 39.509 29.7815H38.3395C37.323 29.7815 36.7568 29.1622 36.7568 28.2323C36.7568 27.4029 37.2753 26.6031 38.7858 26.6031H41.304L40.7595 27.767H38.5817C38.1653 27.767 38.0372 27.9854 38.0372 28.194C38.0372 28.4085 38.1956 28.6449 38.5136 28.6449H39.7387C40.8718 28.6449 41.3636 29.2877 41.3636 30.1294C41.3636 31.0344 40.8156 31.7756 39.677 31.7756H36.921Z"/><path id="path3076" fill="#016FD0" d="M41.6671 31.7756V30.6526H44.2551C44.638 30.6526 44.8038 30.4457 44.8038 30.2188C44.8038 30.0013 44.6385 29.7815 44.2551 29.7815H43.0856C42.0691 29.7815 41.5029 29.1622 41.5029 28.2323C41.5029 27.4029 42.0214 26.6031 43.5319 26.6031H46.0501L45.5056 27.767H43.3278C42.9114 27.767 42.7833 27.9854 42.7833 28.194C42.7833 28.4085 42.9417 28.6449 43.2597 28.6449H44.4848C45.6179 28.6449 46.1097 29.2877 46.1097 30.1294C46.1097 31.0344 45.5617 31.7756 44.4231 31.7756H41.6671Z"/></g></g></svg>

<svg xmlns="http://www.w3.org/2000/svg" fill="none" aria-hidden="true" viewBox="0 0 48 48"><path fill="#016FD0" d="M2 2h44v23.753l-2.178 3.402L46 32.185V46H2V23.609l1.361-1.566L2 20.546V2Z"/><path fill="#fff" d="M10.541 32.66v-6.907h7.314l.785 1.023.81-1.023H46v6.431s-.694.47-1.497.476H29.802l-.885-1.088v1.088h-2.9v-1.858s-.395.26-1.252.26h-.986v1.598h-4.39l-.784-1.044-.795 1.044h-7.27ZM2 20.546l1.65-3.845h2.852l.936 2.154V16.7h3.546l.557 1.556.54-1.556H28v.782s.836-.782 2.211-.782l5.165.018.92 2.125V16.7h2.967l.817 1.22V16.7h2.995v6.908H40.08l-.783-1.225v1.225h-4.36l-.438-1.09h-1.172l-.431 1.09h-2.957a2.924 2.924 0 0 1-1.94-.767v.767h-4.457l-.885-1.09v1.09H6.079l-.438-1.09H4.473l-.435 1.09H2v-3.063Z"/><path fill="#016FD0" d="m4.233 17.552-2.225 5.173h1.449l.41-1.036h2.387l.408 1.036h1.48L5.92 17.552H4.233Zm.823 1.204.728 1.81H4.327l.73-1.81Zm3.239 3.968V17.55l2.059.008 1.197 3.335 1.168-3.343h2.042v5.173h-1.293v-3.811l-1.37 3.81h-1.135l-1.374-3.81v3.81H8.295Zm7.351 0V17.55h4.22v1.157h-2.913v.885h2.845v1.09h-2.845v.918h2.913v1.123h-4.22Zm4.968-5.172v5.173h1.293v-1.838h.544l1.551 1.838h1.58l-1.701-1.906a1.575 1.575 0 0 0 1.418-1.589c0-1.088-.854-1.678-1.807-1.678h-2.878Zm1.293 1.157h1.478c.355 0 .613.278.613.545 0 .343-.335.544-.594.544h-1.497V18.71Zm5.241 4.015h-1.32V17.55h1.32v5.173Zm3.13 0h-.285c-1.379 0-2.216-1.087-2.216-2.565 0-1.515.828-2.608 2.57-2.608h1.429v1.225h-1.482c-.707 0-1.207.552-1.207 1.396 0 1.001.572 1.422 1.396 1.422h.34l-.545 1.13Zm2.814-5.172-2.224 5.173h1.448l.41-1.036h2.387l.408 1.036h1.48l-2.222-5.173h-1.687Zm.823 1.204.728 1.81h-1.457l.73-1.81Zm3.238 3.968V17.55h1.644l2.099 3.25v-3.25h1.293v5.173h-1.591l-2.152-3.335v3.335h-1.293Zm-25.726 9.052v-5.173h4.22v1.157h-2.914v.885h2.845v1.089h-2.845v.919h2.913v1.123h-4.22Zm20.675 0v-5.173h4.22v1.157h-2.913v.885h2.831v1.089h-2.83v.919h2.913v1.123h-4.22Zm-16.292 0 2.054-2.555-2.103-2.618h1.63l1.252 1.619 1.257-1.619h1.565L19.39 29.19l2.059 2.587h-1.63l-1.216-1.593-1.186 1.593H15.81Zm5.79-5.172v5.172h1.328v-1.633h1.361c1.152 0 2.025-.61 2.025-1.8 0-.984-.685-1.739-1.857-1.739h-2.856Zm1.328 1.17h1.433c.372 0 .639.228.639.595 0 .346-.265.596-.643.596h-1.43v-1.191Zm3.947-1.171v5.173h1.294v-1.838h.544l1.55 1.838h1.58l-1.7-1.906a1.575 1.575 0 0 0 1.418-1.589c0-1.088-.855-1.678-1.808-1.678h-2.878Zm1.294 1.157h1.478c.354 0 .612.277.612.545 0 .343-.334.544-.593.544h-1.497V27.76Zm8.751 4.016v-1.123h2.589c.383 0 .549-.207.549-.434 0-.218-.166-.438-.55-.438H38.34c-1.016 0-1.582-.619-1.582-1.549 0-.829.518-1.629 2.029-1.629h2.518l-.545 1.164h-2.178c-.416 0-.544.218-.544.427 0 .215.158.45.477.45h1.224c1.134 0 1.625.644 1.625 1.486 0 .904-.547 1.646-1.686 1.646H36.92Zm4.747 0v-1.123h2.588c.383 0 .549-.207.549-.434 0-.218-.166-.438-.55-.438h-1.169c-1.016 0-1.582-.619-1.582-1.549 0-.829.518-1.629 2.029-1.629h2.518l-.544 1.164h-2.178c-.417 0-.545.218-.545.427 0 .215.158.45.477.45h1.225c1.133 0 1.624.644 1.624 1.486 0 .904-.547 1.646-1.686 1.646h-2.756Z"/></svg>
